client/assets/images/plus.svg

<?xml version="1.0" encoding="UTF-8" standalone="no"?>
<!-- Created with Inkscape (http://www.inkscape.org/) -->

<svg
   xmlns:dc="http://purl.org/dc/elements/1.1/"
   xmlns:cc="http://creativecommons.org/ns#"
   xmlns:rdf="http://www.w3.org/1999/02/22-rdf-syntax-ns#"
   xmlns:svg="http://www.w3.org/2000/svg"
   xmlns="http://www.w3.org/2000/svg"
   xmlns:sodipodi="http://sodipodi.sourceforge.net/DTD/sodipodi-0.dtd"
   xmlns:inkscape="http://www.inkscape.org/namespaces/inkscape"
   width="24"
   height="24"
   id="svg2"
   version="1.1"
   inkscape:version="0.48.4 r9939"
   sodipodi:docname="plus-black.svg">
  <defs
     id="defs4">
    <linearGradient
       id="linearGradient3979">
      <stop
         style="stop-color:#dff1f7;stop-opacity:0.44615385;"
         offset="0"
         id="stop3981" />
      <stop
         style="stop-color:#ffffff;stop-opacity:0.09230769;"
         offset="1"
         id="stop3983" />
    </linearGradient>
  </defs>
  <sodipodi:namedview
     id="base"
     pagecolor="#ffffff"
     bordercolor="#666666"
     borderopacity="1.0"
     inkscape:pageopacity="0.0"
     inkscape:pageshadow="2"
     inkscape:zoom="15"
     inkscape:cx="-14.93815"
     inkscape:cy="4.0962886"
     inkscape:document-units="px"
     inkscape:current-layer="layer1"
     showgrid="true"
     inkscape:window-width="2495"
     inkscape:window-height="1290"
     inkscape:window-x="65"
     inkscape:window-y="24"
     inkscape:window-maximized="1">
    <inkscape:grid
       type="xygrid"
       id="grid4226"
       empspacing="5"
       visible="true"
       enabled="true"
       snapvisiblegridlinesonly="true" />
  </sodipodi:namedview>
  <metadata
     id="metadata7">
    <rdf:RDF>
      <cc:Work
         rdf:about="">
        <dc:format>image/svg+xml</dc:format>
        <dc:type
           rdf:resource="http://purl.org/dc/dcmitype/StillImage" />
        <dc:title></dc:title>
      </cc:Work>
    </rdf:RDF>
  </metadata>
  <g
     inkscape:label="Layer 1"
     inkscape:groupmode="layer"
     id="layer1"
     transform="translate(0,-1028.3622)">
    <path
       style="fill:#ffffff;fill-opacity:1;stroke:none;stroke-width:0.77499998000000003;stroke-linecap:round;stroke-linejoin:round;stroke-miterlimit:4;stroke-opacity:0.54117649999999995;stroke-dasharray:none"
       d="M 12.0625 2.03125 C 11.2315 2.03125 10.5625 2.70025 10.5625 3.53125 L 10.5625 10.28125 L 3.5625 10.28125 C 2.7315 10.28125 2.0625 10.95025 2.0625 11.78125 C 2.0625 12.61225 2.7315 13.28125 3.5625 13.28125 L 10.5625 13.28125 L 10.5625 20.53125 C 10.5625 21.36225 11.2315 22.03125 12.0625 22.03125 C 12.8935 22.03125 13.5625 21.36225 13.5625 20.53125 L 13.5625 13.28125 L 20.5625 13.28125 C 21.3935 13.28125 22.0625 12.61225 22.0625 11.78125 C 22.0625 10.95025 21.3935 10.28125 20.5625 10.28125 L 13.5625 10.28125 L 13.5625 3.53125 C 13.5625 2.70025 12.8935 2.03125 12.0625 2.03125 z "
       id="rect5867"
       transform="translate(0,1028.3622)" />
  </g>
</svg>

<?xml version="1.0" encoding="UTF-8" standalone="no"?>
<!-- Created with Inkscape (http://www.inkscape.org/) -->

<svg
   xmlns:dc="http://purl.org/dc/elements/1.1/"
   xmlns:cc="http://creativecommons.org/ns#"
   xmlns:rdf="http://www.w3.org/1999/02/22-rdf-syntax-ns#"
   xmlns:svg="http://www.w3.org/2000/svg"
   xmlns="http://www.w3.org/2000/svg"
   xmlns:sodipodi="http://sodipodi.sourceforge.net/DTD/sodipodi-0.dtd"
   xmlns:inkscape="http://www.inkscape.org/namespaces/inkscape"
   width="24"
   height="24"
   id="svg2"
   version="1.1"
   inkscape:version="0.91 r"
   sodipodi:docname="plus.svg"
   viewbox="0 0 24 24">
  <defs
     id="defs4">
    <linearGradient
       id="linearGradient3979">
      <stop
         style="stop-color:#dff1f7;stop-opacity:0.44615385;"
         offset="0"
         id="stop3981" />
      <stop
         style="stop-color:#ffffff;stop-opacity:0.09230769;"
         offset="1"
         id="stop3983" />
    </linearGradient>
  </defs>
  <sodipodi:namedview
     id="base"
     pagecolor="#ffffff"
     bordercolor="#666666"
     borderopacity="1.0"
     inkscape:pageopacity="0.0"
     inkscape:pageshadow="2"
     inkscape:zoom="67.941177"
     inkscape:cx="3.1585914"
     inkscape:cy="13.454051"
     inkscape:document-units="px"
     inkscape:current-layer="layer1"
     showgrid="true"
     inkscape:window-width="2495"
     inkscape:window-height="1290"
     inkscape:window-x="65"
     inkscape:window-y="24"
     inkscape:window-maximized="1">
    <inkscape:grid
       type="xygrid"
       id="grid4226"
       empspacing="5"
       visible="true"
       enabled="true"
       snapvisiblegridlinesonly="true" />
  </sodipodi:namedview>
  <metadata
     id="metadata7">
    <rdf:RDF>
      <cc:Work
         rdf:about="">
        <dc:format>image/svg+xml</dc:format>
        <dc:type
           rdf:resource="http://purl.org/dc/dcmitype/StillImage" />
        <dc:title />
      </cc:Work>
    </rdf:RDF>
  </metadata>
  <g
     inkscape:label="Layer 1"
     inkscape:groupmode="layer"
     id="layer1"
     transform="translate(0,-1028.3622)">
    <path
       style="fill:#ffffff;fill-opacity:1;stroke:none;stroke-width:0.77499998;stroke-linecap:round;stroke-linejoin:round;stroke-miterlimit:4;stroke-dasharray:none;stroke-opacity:0.54117647"
       d="m 12.0625,2.03125 c -0.831,0 -1.5,0.669 -1.5,1.5 l 0,6.75 -7,0 c -0.831,0 -1.5,0.669 -1.5,1.5 0,0.831 0.669,1.5 1.5,1.5 l 7,0 0,7.25 c 0,0.831 0.669,1.5 1.5,1.5 0.831,0 1.5,-0.669 1.5,-1.5 l 0,-7.25 7,0 c 0.831,0 1.5,-0.669 1.5,-1.5 0,-0.831 -0.669,-1.5 -1.5,-1.5 l -7,0 0,-6.75 c 0,-0.831 -0.669,-1.5 -1.5,-1.5 z"
       id="rect5867"
       transform="translate(0,1028.3622)"
       inkscape:connector-curvature="0" />
  </g>
</svg>
